svgs/sharp-light/database.svg

<svg xmlns="http://www.w3.org/2000/svg" viewBox="0 0 448 512"><!--! Font Awesome Pro 6.6.0 by @fontawesome - https://fontawesome.com License - https://fontawesome.com/license (Commercial License) Copyright 2024 Fonticons, Inc. --><path d="M32 203.6l88.1 50.3 3.7 2.1 4.2 0 192 0 4.2 0 3.7-2.1L416 203.6l0 91.1L315.8 352l-183.5 0L32 294.7l0-91.1zm0-36.9l0-69L137.2 32l173.6 0L416 97.7l0 69L315.8 224l-183.5 0L32 166.7zm0 247.6l0-82.7 88.1 50.3 3.7 2.1 4.2 0 192 0 4.2 0 3.7-2.1L416 331.6l0 82.7L310.8 480l-173.6 0L32 414.3zM128 0L0 80 0 432l128 80 192 0 128-80 0-352L320 0 128 0z"/></svg>

<svg xmlns="http://www.w3.org/2000/svg" viewBox="0 0 448 512"><!--! Font Awesome Pro 6.4.2 by @fontawesome - https://fontawesome.com License - https://fontawesome.com/license (Commercial License) Copyright 2023 Fonticons, Inc. --><path d="M32 203.6l88.1 50.3 3.7 2.1H128 320h4.2l3.7-2.1L416 203.6v91.1L315.8 352H132.2L32 294.7V203.6zm0-36.9v-69L137.2 32H310.8L416 97.7v69L315.8 224H132.2L32 166.7zm0 247.6V331.6l88.1 50.3 3.7 2.1H128 320h4.2l3.7-2.1L416 331.6v82.7L310.8 480H137.2L32 414.3zM128 0L0 80V432l128 80H320l128-80V80L320 0H128z"/></svg>
